!!!OTL: Verh&auml;ngnisvoller Irrtum (234), S.505
!!!id: T0421
**kern
*clefG2
*k[]
*C:
{8e
=1
4e
8c
4c
8a
=2
4a
8g
4g}
=3
{8e
=4
4g
8f
4d
8e
=5
4c}
4.r
=6
{8e
=7
4e
8c
4c
8a
=8
4a
8g
4g}
=9
{8e
=10
4g
8f
4d
8e
=11
4c}
4.r
=12
{8e
=13
8.d
16d
8d
4d
8d
=14
4d
8cc
4cc}
=15
{8cc
=16
4cc
8cc
4dd
8cc
=17
4b
8a
4g}
=18
{8e
=19
4e
8c
4c
8a
=20
8a
8g
8g
4g}
=21
{8e
=22
4g
8f
4d
8e
=23
4c}
4.r
=24
{8e
=25
8.d
16d
8d
4d
8d
=26
4d
8cc
4cc}
=27
{8cc
=28
4cc
8cc
4dd
8cc
=29
4b
8a
4g}
=30
{8e
=31
4e
8c
4c
8a
=32
8a
8g
8g
4g}
=33
{8e
=34
4g
8f
4d
8e
=35
4c}
4.r
==
*-
!!!minrhy: 16
!!!meters: 6/8 ]  ZZ[12
!!!cut: Verh&auml;ngnisvoller Irrtum (234), S.505
!!!reg: Luxemburg
!!!trd: Singendes Volk, Esch-Alzette, 1937 posth.
!!!rhy1: X_  X__X_X__X_  X__X_X__   (x2)
!!!rhy2: X_  X__X_X__X_  X__0_.
!!!key: T0421  16  C 6/8 ]  ZZ[12
!!!mod: HEPTATONIK IONISCH]  AMBITUS[9
!!!kad: 5151+1551+1551
!!!akz: 3165_521_3165_521_222+1_+1+275_3165_521_222+1_+1+275_3165_521_
!!!fot: 'a__b__a__b__c__d__av_b__c__d__av_b__
!!!for: 'a__aw_a__aw_b__a__aw_aw_b__a__aw_aw_
!!!fok: 'Va_^d_Va_^d_/__\__Va_^d_/__\__Va_^d_
!! PHRAS[AUFTAKTIG]
!!!fkt: J&auml;gerlied
!!!bem: Heffingen, fff Marie Berchem, 1908
!! THILL; Mathias
!! PR[30] 2K[6] 2G[20] 3K[5] 3G[2] 4A[1] 4Ü[0] 5A[0] 6K[0] 6G[0]
!! 7K[0] 7G[0] 8A[0] MEHR[0] SI[34] ABS[86] SR[26] SP[8]
!! ST[20] 2k[6] 2g[23] 3k[6] 3g[1] 4d[0] 4ü[0] 5d[0] 6k[0] 6g[0]
!! 7k[0] 7g[0] 8d[0] mehr[0] si[36] dm[-2] sr[29] sp[7]
!! 1F[69] 2F[29] 3F[1] 4F[0] LF[0] 2P[1] 3P[0] 4P[0] TRI[0] DF[4] AB[89]
!! TF[0] U3K[0] U3[0] U4[0] U4Ü[0] U5[2] U6K[0] U6[0] U7K[0] U7[1]
!! N1[16] N2K[0] N2[20] N3K[0] N3[31] N4[11] N4Ü[0] N5[16] N6K[0] N6[2]
!!!n7k: 0] N7[0] O1[0] O2K[0] O2[0] O3K[0] O3[0] HÖ[0
!!!RNB: symbol: &auml;      = a umlaut  (UTF-8: Å„)
